X:1
T:The Rolling Stone
M:3/4
L:1/4
K:F
 D/2D/2| G G A| B A A/2A/2| G F D| F2 B/2c/2| d d d| G G G| D E F|\
 G2 D/2D/2| G G A| B A A| G F D| F2 B/2c/2| d d d| G G G| D E F| G2 D|\
 G G A| B A A| G F D| F2B/2-c/2| d d d| G G G| D E F| G2||
